svg/u1f3d3.svg

<svg viewBox="0 0 128 128" xmlns="http://www.w3.org/2000/svg">
  <path d="M40.77,61.97c0,0-9.24,3.88-8.98,4.97c0.26,1.1,1.87,3.68,2.84,5.88c0.69,1.57,2,4.26,1.74,6.59 s-1.55,6.46-1.55,6.46l13.83,11.69c0,0,2.53-2.72,6.51-3.94c3.87-1.19,6.8-0.44,8.28-0.32c2.52,0.19,6.2,0.52,6.72,0.26 c1.09-0.54-14.41-20.54-14.41-20.54L40.77,61.97z" fill="#FDD083"/>
  <path d="M42.04,73.01c0,0-8.24,13.38-13.61,20.94s-9.95,13.12-10.6,13.83c-0.65,0.71-4.07,3.49-3.88,5.04 c0.19,1.55,4.01,4.07,7.82,6.78c3.81,2.71,6.98,5.56,8.4,5.04s5.33-7.62,7.75-11.11c4.5-6.48,21.13-29.89,21.13-29.89L42.04,73.01z" fill="#F3A25A"/>
  <path d="M41.01,82.38c0.39,0,0.15,3.3,3.18,5.17c3.04,1.87,5.41,1.42,5.74,1.81 c0.14,0.16-3.36,5.24-7.43,11.05c-5.21,7.44-10.99,15.29-11.5,16.09c-0.71,1.1-2.84,2.91-5.11,1.49c-2.23-1.4-4.63-3.24-5.47-4.6 c-0.84-1.36,0.04-2.64,1.33-4.32c0.71-0.92,5.81-7.93,10.79-14.93C36.64,88.4,40.69,82.38,41.01,82.38z" fill="#FDD083"/>
  <path d="M31.79,66.95l36.68,26.79c0,0,10.24,1.25,17.06-2.22s14.5-8.67,21.91-22.39 c7.66-14.19,14.72-40.22-10.53-56.33s-47.77,3.95-54.35,11.73s-12.64,17-13.17,28.01C28.9,62.48,31.79,66.95,31.79,66.95z" fill="#FF4F28"/>
  <path d="M53.72,47.69c11.17-0.01,18.01-9.86,16.71-21.03S55.27,14.27,55.27,14.27L37.34,31.3l-1.22,1.87 C36.11,33.18,37.05,47.71,53.72,47.69z" fill="#EE3E23"/>
  <path d="M40.19,7.01c-6.37,4.69-9.29,14.75-3.99,22.74c4.69,7.07,16.74,10.43,25.19,3.18 c8.87-7.61,5.78-19.65,1.14-24.29C56.33,2.45,46.38,2.45,40.19,7.01z" fill="#D8CDC9"/>
  <path d="M41.66,9.95C37.5,14.02,36.44,22.01,41.74,26c4.92,3.71,11.66,3.26,15.49-1.3 c3.99-4.75,2.2-12.88-1.55-15.41C52.64,7.25,46.23,5.46,41.66,9.95z" fill="#EAEBEB"/>
  <path d="M40.67,23.37c1.86-0.19,2.1-1.84,2.51-5.02c0.38-2.94,3.25-6.41,5.76-6.97 c2.71-0.6,4.3-0.63,4.29-2.34c-0.02-2.03-4.01-3.61-8.56-1.56c-4.62,2.08-6.97,7.62-6.97,11.24C37.7,22.41,38.89,23.55,40.67,23.37z " fill="#FEFFFF"/>
</svg>

<svg viewBox="0 0 128 128" xmlns="http://www.w3.org/2000/svg">
  <defs/>
  <path d="M40.77,61.97 C40.77,61.97 31.53,65.85 31.79,66.94 C32.05,68.04 33.66,70.62 34.63,72.82 C35.32,74.39 36.63,77.08 36.37,79.41 C36.11,81.74 34.82,85.87 34.82,85.87 L48.65,97.56 C48.65,97.56 51.18,94.84 55.16,93.62 C59.03,92.43 61.96,93.18 63.44,93.3 C65.96,93.49 69.64,93.82 70.16,93.56 C71.25,93.02 55.75,73.02 55.75,73.02 L40.77,61.97 Z" fill="#FDD083"/>
  <path d="M42.04,73.01 C42.04,73.01 33.8,86.39 28.43,93.95 C23.06,101.51 18.48,107.07 17.83,107.78 C17.18,108.49 13.76,111.27 13.95,112.82 C14.14,114.37 17.96,116.89 21.77,119.6 C25.58,122.31 28.75,125.16 30.17,124.64 C31.59,124.12 35.5,117.02 37.92,113.53 C42.42,107.05 59.05,83.64 59.05,83.64 L42.04,73.01 Z" fill="#F3A25A"/>
  <path d="M41.01,82.38 C41.4,82.38 41.16,85.68 44.19,87.55 C47.23,89.42 49.6,88.97 49.93,89.36 C50.07,89.52 46.57,94.6 42.5,100.41 C37.29,107.85 31.51,115.7 31,116.5 C30.29,117.6 28.16,119.41 25.89,117.99 C23.66,116.59 21.26,114.75 20.42,113.39 C19.58,112.03 20.46,110.75 21.75,109.07 C22.46,108.15 27.56,101.14 32.54,94.14 C36.64,88.4 40.69,82.38 41.01,82.38 Z" fill="#FDD083"/>
  <path d="M31.79,66.95 L68.47,93.74 C68.47,93.74 78.71,94.99 85.53,91.52 C92.35,88.05 100.03,82.85 107.44,69.13 C115.1,54.94 122.16,28.91 96.91,12.8 C71.66,-3.31 49.14,16.75 42.56,24.53 C35.98,32.31 29.92,41.53 29.39,52.54 C28.9,62.48 31.79,66.95 31.79,66.95 Z" fill="#FF4F28"/>
  <path d="M53.72,47.69 C64.89,47.68 71.73,37.83 70.43,26.66 C69.13,15.49 55.27,14.27 55.27,14.27 L37.34,31.3 L36.12,33.17 C36.11,33.18 37.05,47.71 53.72,47.69 Z" fill="#EE3E23"/>
  <path d="M40.19,7.01 C33.82,11.7 30.9,21.76 36.2,29.75 C40.89,36.82 52.94,40.18 61.39,32.93 C70.26,25.32 67.17,13.28 62.53,8.64 C56.33,2.45 46.38,2.45 40.19,7.01 Z" fill="#D8CDC9"/>
  <path d="M41.66,9.95 C37.5,14.02 36.44,22.01 41.74,26 C46.66,29.71 53.4,29.26 57.23,24.7 C61.22,19.95 59.43,11.82 55.68,9.29 C52.64,7.25 46.23,5.46 41.66,9.95 Z" fill="#EAEBEB"/>
  <path d="M40.67,23.37 C42.53,23.18 42.77,21.53 43.18,18.35 C43.56,15.41 46.43,11.94 48.94,11.38 C51.65,10.78 53.24,10.75 53.23,9.04 C53.21,7.01 49.22,5.43 44.67,7.48 C40.05,9.56 37.7,15.1 37.7,18.72 C37.7,22.41 38.89,23.55 40.67,23.37 Z" fill="#FEFFFF"/>
</svg>
